X:092
T: Loch Earn
R: reel
M: C|
L: 1/8
K: G
|:\
g2(dB) G2(BG) | E2(AG) FDF | g2(dB) G2(BG) | EAFD G2G2 :|
(ef).g.e (fg).a.b | (gf)(ge) (fd).d.f | efge fgab | gfed g2(Bd) |
(ef).g.e (dB).g.B | caBg ADFD | (GA).B.G (EG).c.e | dcBA G2G2 |]

